svgs/dkb.svg

<svg xmlns="http://www.w3.org/2000/svg" viewBox="0 0 192 192"><path d="M16 96V16h14.912c16.153 0 20.394 2.937 27.494 19.041 8.56 19.415 12.196 53.454 8.849 82.855-2.651 23.289-7.378 38.476-15.266 49.049C45.91 175.094 43.771 176 30.617 176H16Zm29.285 31.561c5.298-8.69 7.691-26.933 5.681-43.314-1.963-15.993-4.97-22.462-12.112-26.051l-6.044-3.037v79.102l4.203-.011c2.312-.005 6.034-3.016 8.272-6.687ZM74.19 96V16h18.104l.006 28.696.006 28.695 6.136-28.673 6.136-28.672 9.375-.024c5.156-.011 9.375.884 9.375 1.992s-3.492 16.512-7.759 34.23c-4.267 17.719-7.75 34.421-7.739 37.116.01 2.695 3.991 22.9 8.845 44.9l8.827 40-8.394 1.041c-4.617.572-9.098.314-9.958-.574-.86-.888-4.409-15.264-7.887-31.948l-6.323-30.333-.372 31.776-.372 31.777H74.189Zm55.604 0V16h14.999c16.916 0 22.622 4.683 25.791 21.166 2.63 13.679 2.346 31.964-.656 42.228l-2.538 8.679 3.081 7.786c6.612 16.707 7.376 41.823 1.848 60.727C167.472 173.16 163.625 176 146.022 176h-16.228Zm26.897 37.565c.853-2.295 1.551-7.461 1.551-11.478 0-10.434-2.457-15.652-7.37-15.652-4.196 0-4.268.264-4.268 15.652 0 15.389.072 15.652 4.268 15.652 2.347 0 4.965-1.878 5.819-4.174Zm-.222-64.193c.994-10.658-2.294-19.52-6.622-17.851-1.983.764-2.691 4.083-2.997 14.044-.395 12.82-.323 13.044 4.178 13.044 3.877 0 4.711-1.415 5.441-9.237Z"/></svg>

<svg
    xmlns="http://www.w3.org/2000/svg"
    viewBox="0 0 192 192"
    id="vector">
    <path
        id="path"
        d="M 16 96 L 16 16 L 30.912 16 C 47.065 16 51.306 18.937 58.406 35.041 C 66.966 54.456 70.602 88.495 67.255 117.896 C 64.604 141.185 59.877 156.372 51.989 166.945 C 45.91 175.094 43.771 176 30.617 176 L 16 176 Z M 45.285 127.561 C 50.583 118.871 52.976 100.628 50.966 84.247 C 49.003 68.254 45.996 61.785 38.854 58.196 L 32.81 55.159 L 32.81 134.261 L 37.013 134.25 C 39.325 134.245 43.047 131.234 45.285 127.563 Z M 74.19 96 L 74.19 16 L 92.294 16 L 92.3 44.696 L 92.306 73.391 L 98.442 44.718 L 104.578 16.046 L 113.953 16.022 C 119.109 16.011 123.328 16.906 123.328 18.014 C 123.328 19.122 119.836 34.526 115.569 52.244 C 111.302 69.963 107.819 86.665 107.83 89.36 C 107.84 92.055 111.821 112.26 116.675 134.26 L 125.502 174.26 L 117.108 175.301 C 112.491 175.873 108.01 175.615 107.15 174.727 C 106.29 173.839 102.741 159.463 99.263 142.779 L 92.94 112.446 L 92.568 144.222 L 92.196 175.999 L 74.189 175.999 Z M 129.794 96 L 129.794 16 L 144.793 16 C 161.709 16 167.415 20.683 170.584 37.166 C 173.214 50.845 172.93 69.13 169.928 79.394 L 167.39 88.073 L 170.471 95.859 C 177.083 112.566 177.847 137.682 172.319 156.586 C 167.472 173.16 163.625 176 146.022 176 L 129.794 176 Z M 156.691 133.565 C 157.544 131.27 158.242 126.104 158.242 122.087 C 158.242 111.653 155.785 106.435 150.872 106.435 C 146.676 106.435 146.604 106.699 146.604 122.087 C 146.604 137.476 146.676 137.739 150.872 137.739 C 153.219 137.739 155.837 135.861 156.691 133.565 Z M 156.469 69.372 C 157.463 58.714 154.175 49.852 149.847 51.521 C 147.864 52.285 147.156 55.604 146.85 65.565 C 146.455 78.385 146.527 78.609 151.028 78.609 C 154.905 78.609 155.739 77.194 156.469 69.372 Z"
        fill="#000000"
        stroke-width="12"/>
</svg>
